X: 4359
M: 6/8
L: 1/8
K: D
|:\
d3 d3 | d3 dcB | ABA GFE | F3 D3 |\
d3 d3 | d3 dcB | ABA GFE |[1 D3- D2z :|[2 D3 DF^G |


